assets/img/braze_icons/brackets-check.svg

<svg fill="none" height="24" viewBox="0 0 24 24" width="24" xmlns="http://www.w3.org/2000/svg"><g clip-rule="evenodd" fill="#801ed7" fill-rule="evenodd"><path d="m17.5708 4c0-.55228.4477-1 1-1 1.8153 0 3.286 1.47071 3.286 3.286v4.1568l.8501.8501c.3905.3905.3905 1.0237 0 1.4142l-.8501.8501v4.1568c0 1.8156-1.472 3.286-3.286 3.286-.5523 0-1-.4477-1-1s.4477-1 1-1c.71 0 1.286-.5756 1.286-1.286v-4.571c0-.2652.1054-.5196.2929-.7071l.4359-.4359-.4359-.4359c-.1875-.1875-.2929-.4419-.2929-.7071v-4.571c0-.71071-.5753-1.286-1.286-1.286-.5523 0-1-.44772-1-1z"/><path d="m2.143 6.286c0-1.81529 1.47072-3.286 3.286-3.286.55228 0 1 .44772 1 1s-.44772 1-1 1c-.71072 0-1.286.57528-1.286 1.286v4.571c0 .2652-.10536.5196-.29289.7071l-.4359.4359.4359.4359c.18753.1875.29289.4419.29289.7071v4.571c0 .7107.57528 1.286 1.286 1.286.55228 0 1 .4477 1 1s-.44772 1-1 1c-1.81528 0-3.286-1.4707-3.286-3.286v-4.1568l-.85011-.8501c-.18753-.1875-.29289-.4419-.29289-.7071s.10536-.5196.29289-.7071l.85011-.8501z"/><path d="m17.2071 8.29289c.3905.39053.3905 1.02369 0 1.41422l-5.4343 5.43429c-.0054.0054-.0108.0109-.0164.0164-.0842.0842-.1847.1849-.2806.2663-.111.0942-.2796.2198-.5123.2954-.3012.0979-.6258.0979-.927 0-.23266-.0756-.40126-.2012-.51233-.2954-.09585-.0814-.1964-.182-.28059-.2663-.00553-.0055-.01099-.011-.01637-.0164l-2.43432-2.4343c-.39052-.3905-.39052-1.0237 0-1.4142.39053-.3905 1.02369-.3905 1.41422 0l2.29289 2.2929 5.2929-5.29291c.3905-.39052 1.0237-.39052 1.4142 0z"/></g></svg>

<svg width="24" height="24" viewBox="0 0 24 24" fill="none" xmlns="http://www.w3.org/2000/svg">
<path fill-rule="evenodd" clip-rule="evenodd" d="M17.5708 4C17.5708 3.44772 18.0185 3 18.5708 3C20.3861 3 21.8568 4.47071 21.8568 6.286V10.4428L22.7069 11.2929C23.0974 11.6834 23.0974 12.3166 22.7069 12.7071L21.8568 13.5572V17.714C21.8568 19.5296 20.3848 21 18.5708 21C18.0185 21 17.5708 20.5523 17.5708 20C17.5708 19.4477 18.0185 19 18.5708 19C19.2808 19 19.8568 18.4244 19.8568 17.714V13.143C19.8568 12.8778 19.9622 12.6234 20.1497 12.4359L20.5856 12L20.1497 11.5641C19.9622 11.3766 19.8568 11.1222 19.8568 10.857V6.286C19.8568 5.57529 19.2815 5 18.5708 5C18.0185 5 17.5708 4.55228 17.5708 4Z" fill="#801ED7"/>
<path fill-rule="evenodd" clip-rule="evenodd" d="M2.143 6.286C2.143 4.47071 3.61372 3 5.429 3C5.98128 3 6.429 3.44772 6.429 4C6.429 4.55228 5.98128 5 5.429 5C4.71828 5 4.143 5.57528 4.143 6.286V10.857C4.143 11.1222 4.03764 11.3766 3.85011 11.5641L3.41421 12L3.85011 12.4359C4.03764 12.6234 4.143 12.8778 4.143 13.143V17.714C4.143 18.4247 4.71828 19 5.429 19C5.98128 19 6.429 19.4477 6.429 20C6.429 20.5523 5.98128 21 5.429 21C3.61372 21 2.143 19.5293 2.143 17.714V13.5572L1.29289 12.7071C1.10536 12.5196 1 12.2652 1 12C1 11.7348 1.10536 11.4804 1.29289 11.2929L2.143 10.4428V6.286Z" fill="#801ED7"/>
<path fill-rule="evenodd" clip-rule="evenodd" d="M17.2071 8.29289C17.5976 8.68342 17.5976 9.31658 17.2071 9.70711L11.7728 15.1414C11.7674 15.1468 11.762 15.1523 11.7564 15.1578C11.6722 15.242 11.5717 15.3427 11.4758 15.4241C11.3648 15.5183 11.1962 15.6439 10.9635 15.7195C10.6623 15.8174 10.3377 15.8174 10.0365 15.7195C9.80384 15.6439 9.63524 15.5183 9.52417 15.4241C9.42832 15.3427 9.32777 15.2421 9.24358 15.1578C9.23805 15.1523 9.23259 15.1468 9.22721 15.1414L6.79289 12.7071C6.40237 12.3166 6.40237 11.6834 6.79289 11.2929C7.18342 10.9024 7.81658 10.9024 8.20711 11.2929L10.5 13.5858L15.7929 8.29289C16.1834 7.90237 16.8166 7.90237 17.2071 8.29289Z" fill="#801ED7"/>
</svg>
